X:21
T: GUETE MORGEN BUCKLIGE GRET
N: E0004A
O: Europa, Mitteleuropa, Deutschland; Frankreich, Elsass
R: Sage, Maerchen -, Zauber - Lied
M: 2/4
L: 1/16
K: F
 | c3dc2B2 | A2AAA2
G2 | A3FF2A2 | A4G2
G2 | A3GA2B2 | c2d2c2
G2 | A3FA2G2 | G4F2z2

